X: 7570
T: Cockles And Mussels
R: waltz
M: 3/4
K: Cmajor
P:(I.AB.AC.AC)
P:I
|F2 E G3|F2 E G3|F2 E3 C|D2 C4||
P:A
[|1 ,3,5 G2 c4|c2 c e3|(c2 d4)|d2 d f3||
P:B
[|2 d2 e2 d2|c2 g2 f2|e2 e d3|(c2 d4)||
P:C
|4,6 e d e g3|f2 e g3|f2 e3 c|d2 c4||

